**kern
*staff1
*tb8
=1-
*clefG2
*k[b-e-a-]
*met(c)
*M4/4
1r
.
.
.
.
.
.
.
=2
2r
.
.
.
4r
.
8b-\
8b-\
=3
4b-\
.
8cc\
8dd\
8ff\L
8ee-\J
8dd\L
8cc\J
=4
!!linebreak:original
(4b-\
.
4a-/)
.
4r
.
8b-\L
8cc\J
=5
4.cc\
.
.
8f/
4f/
.
8g/L
8a-/J
=6
4d/
.
4r
.
8r
8d/
8e-/
8f/
=7
!!linebreak:original
8g/L
8a-/J
4b-\
.
8b-\L
8bn\J
8cc\L
8dd\J
=8
(4ff\
.
4ee-\)
.
4r
.
8dd\L
8cc\J
=9
4b-\
.
8an/L
8g/J
4b-\
.
8a/L
8g/J
=10
!!linebreak:original
4an/
.
4r
.
4r
.
4d/
.
=11
4bn\
.
4g/
.
4dd\
.
4g/
.
=12
([2ee-\
.
.
.
8ee-\L]
8dd-\J)
8cc\L
8b-\J
=13
!!linebreak:original
(4bn\
.
4cc\)
.
4r
.
8cc\L
8b-\J
=14
8a-/L
8f/J
8cc\L
8a-\J
4.ff\
.
.
8ee-\
=15
4dd\
.
4r
.
4r
.
4b-\
.
=16
!!linebreak:original
(8ee-\L
8ff\
8gg\
8dd\J
8ff\L
8ee-\J)
8dd\L
8cc\J
=17
(8b-/L
8a-/
8g/
8a-/J
8dd\L
8cc\J)
8b-/L
8a-/J
=18
4g/
.
4r
.
4r
.
4b-\
.
=19
4.ee-\
.
.
8e-/
8e-/L
8g/J
8b-\L
8ee-\J
=20
!!linebreak:original
4.ee-\
.
.
8e-/
8e-/L
8g-/J
8b-\L
8ee-\J
=21
4.ee-\
.
.
8ff\
4gg-\
.
4an/
.
=22
4b-\
.
4r
.
4r
.
4b-\
.
=23
!!linebreak:original
(8b-\
4gg\
.
4ff\
.
4ee-\)
.
[8dd\
=24
8dd\]
4cc\
.
4b-\
.
4a-/
.
[8g/
=25
8g/L]
8en/
8f/
8g/J
8a-/L
8b-/J
8bn\L
8cc\J
=26
2.e-/
.
.
.
.
.
8g/L
8f/J
=27
!!linebreak:original
4e-/
.
4r
.
2r
.
.
.
=28
2r
.
.
.
(4.cc\
.
.
8b-\)
=29
8b-\
8b-\
8cc\
8dd\
8ff\L
8ee-\J
8dd\L
8cc\J
=30
!!linebreak:original
(4b-\
.
4a-/)
.
4r
.
8b-\L
8cc\J
=31
4.cc\
.
.
8f/
4f/
.
8g/L
8a-/J
=32
4d/
.
8r
8d/
4e-/
.
4f/
.
=33
!!linebreak:original
8g/
8a-/
([4b-\
.
8b-\L]
8bn\J)
8cc\L
8dd\J
=34
(4ff\
.
4ee-\)
.
4r
.
8dd\L
8cc\J
=35
4b\
.
8an/L
8g/J
4b\
.
(8a/L
8g/J)
=36
!!linebreak:original
4an/
.
4r
.
4r
.
4d/
.
=37
4bn\
.
4g/
.
4dd\
.
4g/
.
=38
([2ee-\
.
.
.
8ee-\L]
8dd-\J)
8cc\L
8b-\J
=39
!!linebreak:original
(4bn\
.
4cc\)
.
4r
.
8cc\L
8b-\J
=40
8a-/L
8f/J
8cc\L
8a-\J
4ff\
.
4ee-\
.
=41
(4ee-\
.
4dd\)
.
4r
.
4b-\
.
=42
!!linebreak:original
(8ee-\L
8ff\
8gg\
8dd\J
8ff\L
8ee-\J)
8dd\L
8cc\J
=43
(8b-/L
8a-/
8g/
8a-/J
8dd\L
8cc\J)
8b-/L
8a-/J
=44
4g/
.
4r
.
4r
.
4b-\
.
=45
4.ee-\
.
.
8e-/
8e-/L
8g/J
8b-\L
8ee-\J
=46
!!linebreak:original
4.ee-\
.
.
8e-/
8e-/L
8g-/J
8b-\L
8ee-\J
=47
4.ee-\
.
.
8ff\
4gg-\
.
4an/
.
=48
4b-\
.
4r
.
4r
.
4b-\
.
=49
!!linebreak:original
(8b-\
4gg\
.
4ff\
.
4ee-\)
.
8dd\
=50
8dd\
4cc\
.
4b-\
.
4a-/
.
[8g/
=51
8g/L]
8en/
8f/
8g/J
8a-/L
8b-/J
8bn\L
8cc\J
=52
2.e-/
.
.
.
.
.
8g/L
8f/J
=53
4e-/
.
4r
.
2r
.
.
.
==
*-
